X:1
T:Title
%%score { ( 1 4 ) | ( 2 3 ) }
L:1/8
Q:1/4=92
M:6/8
K:D
V:1 treble nm="Grand Piano"
V:4 treble 
V:2 bass 
V:3 bass 
V:1
 FFF F2 F | A3 D2 D | E2 E EF[A,EG] |[M:5/8] F-F- F3 |[M:1/8] D |[M:3/4] B2 B A2 D | G2 [CG] F2 F | %7
w: Broughton~Edwards * * * *|||||||
 E2 EE F^G |[M:5/8] [CA]-[CA]- [CA]3 |[M:1/8] [CA] |[M:3/4] .[CA]2 [A,EG] F2 F | FC E D2 D | %12
w: |||||
 B2 B A2 D | G3 E2- [A,E] | D6 |] %15
w: |||
V:2
 [D,A,D][D,A,D][D,A,D] [D,A,D]2 [D,A,D] | [F,A,D]3 [F,A,]2 [F,A,] | [G,B,D]2 [G,B,D] CDA,, | %3
[M:5/8] [D,A,D]-[D,A,D]- [D,A,D]3 |[M:1/8] [F,A,] |[M:3/4] [G,D]2 [G,D] [F,A,D]2 [F,A,] | %6
 [E,B,D]2 [A,,A,] [D,A,D]2 [^D,A,B,] | [E,A,C]2 [E,A,C][E,D]- [E,A,D][E,B,D] | %8
[M:5/8] [A,,A,]-[A,,A,]- [A,,A,]3 |[M:1/8] [A,,E,] |[M:3/4] z E C, [D,A,D]2 [D,A,D] | %11
 .[F,^A,C]2 [F,A,C] [B,,B,]2 [F,=C] | [G,B,D]2 [G,D] [F,A,D]2 [F,A,] | [E,B,D]3 [G,,G,]3 | %14
 [D,F,A,]6 |] %15
V:3
 x6 | x6 | z3 .A,3 |[M:5/8] x5 |[M:1/8] x |[M:3/4] x6 | x6 | z2 z ^G, z2 |[M:5/8] x5 |[M:1/8] x | %10
[M:3/4] [A,,E,]2 z2 z2 | x6 | x6 | x6 | x6 |] %15
V:4
 x6 | x6 | x6 |[M:5/8] x5 |[M:1/8] x |[M:3/4] x6 | x6 | x6 |[M:5/8] x5 |[M:1/8] x |[M:3/4] x6 | %11
 x6 | x6 | z2 z .C3 | x6 |] %15

